X:1
T:Title
%%score 1 ( 2 3 )
L:1/8
Q:1/4=150
M:6/4
K:C
V:1 treble nm="Grand Piano, Soprano"
V:2 bass nm="Choir Pad, Come to Him Now"
V:3 bass 
V:1
 [EG]2 [EG]2 [EG]2 [FA]2 [EG]2 [CE]2 | [EG]2 [DF]2 [^CE]2 [DF]6 | %2
w: By~Hilda~B.~Tovey * * * * *||
 [FB]2 [FA]2 [FG]2 [FA]2 [EG]2 [DF]2 | [CE]12 | [EG]2 [EG]2 [EG]2 [FA]2 [EG]2 [CE]2 | %5
w: |||
 [EG]2 [Ec]2 [GB]2 [FA]4 [_EA][EA] | [EG]2 [EG]2 [Ec]2 [FB]2 [FA]2 [FB]2 | [Ec]12 | %8
w: |||
 [EG]2 [EA]2 [EB]2 [Ec]6 | [Fc]2 [FB]2 [FA]2 [FB]6 | [FG]2 [FA]2 [FB]2 [Fd]4 [FB]2 | %11
w: |||
 [Ec]2 [_EB]2 [EA]2 [=EG]6 | [EG]2 [EA]2 [EB]2 [Ec]6 | [FA]2 [Ac]2 [Ad]2 [^Ge]6 | %14
w: |||
 [Fd]2 [Fc]2 [_EA]2 [=EG]2 [Ec]2 [^F_e]2 | [Ge]2 [EG]2 [Fd]2 [Ec]6- | [Ec]6 z6 |] %17
w: |||
V:2
 [C,C]2 [C,C]2 [C,C]2 [C,C]2 [C,C]2 [C,G,]2 | [G,C]2 [G,B,]2 [G,_B,]2 [G,=B,]6 | %2
 [G,D]2 [G,C]2 [G,B,]2 [G,C]2 [G,B,]2 G,2 | [C,G,]12 | [C,C]2 [C,C]2 [C,C]2 [C,C]2 [C,C]2 [C,G,]2 | %5
 [C,C]2 [C,G,]2 [E,C]2 [F,C]4 C[^F,C] | [G,C]2 [G,C]2 [G,C]2 [G,D]2 [G,B,]2 G,2 | [C,G,]12 | %8
 [C,C]2 [C,C]2 [C,C]2 [C,G,]6 | [D,G,]2 [D,G,]2 [G,B,]2 [G,D]6 | %10
 [G,B,]2 [G,C]2 [G,D]2 [G,B,]4 G,2 | z6 .G,6 | [C,C]2 [C,C]2 [C,C]2 [C,C]6 | %13
 [F,C]2 [F,C]2 [F,A,]2 [E,B,]6 | [F,A,]2 [F,A,]2 [^F,C]2 [G,C]2 [A,C]2 [^G,C]2 | %15
 [G,C]4 [G,B,]G, [C,G,]6- | [C,G,]6 z6 |] %17
V:3
 x12 | x12 | x12 | x12 | x12 | x12 | x12 | x12 | x12 | x12 | x12 | %11
 [C,G,]2 [C,^F,]2 [C,F,]2 C,4- [C,C]2 | x12 | x12 | x12 | x12 | x12 |] %17

